!!!COM: Béla Bartók
!!!OTL: [T345_Bar-w45p2m16-24]
**kern	**dynam	**kern	**dynam	**kern	**dynam	**kern	**dynam	**kern	**dynam
*grp:A	*grp:A	*grp:B	*grp:B	*grp:B	*grp:B	*grp:A	*grp:A	*grp:B	*grp:B
*part5	*part5	*part4	*	*part3	*	*part2	*	*part1	*
*staff5	*	*staff4	*	*staff3	*	*staff2	*	*staff1	*
*I"Contrabass 1. 2.	*	*I"Violoncello 1. 2.	*	*I"Viola 1. 2.	*	*I"Violin 3. 4.	*	*I"Violin 2.	*
*I'Cb.	*	*I'Vc.	*	*I'Vla.	*	*I'Vln. II	*	*I'Vln. I	*
*clefF4	*	*clefF4	*	*clefC3	*	*clefG2	*	*clefG2	*
*ITrd7c12	*	*	*	*	*	*	*	*	*
*k[]	*	*k[]	*	*k[]	*	*k[]	*	*k[]	*
*M7/8	*	*M7/8	*	*M7/8	*	*M7/8	*	*M7/8	*
=16	=16	=16	=16	=16	=16	=16	=16	=16	=16
!	!	!	!	!	!	!	!	!LO:TX:t=[Andante tranquillo, [eighth]=116-112]	!
!	!	!LO:TX:a:t=[con sord.]	!LO:DY:ed=brack	!LO:TX:a:t=[con sord.]	!LO:DY:ed=brack	!LO:TX:a:t=[con sord.]	!LO:DY:ed=brack	!LO:TX:a:t=[con sord.]	!LO:DY:ed=brack
2r	.	8A-X])j	pp	([2fn	pp	(4.cn	pp	4ee~	pp
.	.	(4G	.	.	.	.	.	.	.
.	.	.	.	.	.	.	.	8dd#XL	.
.	.	8An	.	.	.	8A#X	.	8cc#XJ	.
=-	=-	=-	=-	=-	=-	=-	=-	=:	=:
8r	.	4.F#X)	.	8f]	.	4.B)	.	8ddn~	.
8r	.	.	.	4e)	.	.	.	4ccn)j	.
!LO:TX:a:rj:t=con sord.	!	!	!	!	!	!	!	!	!
(8GG	pp	.	.	.	.	.	.	.	.
=17	=17	=17	=17	=17	=17	=17	=17	=17	=17
*M9/8	*	*M9/8	*	*M9/8	*	*M9/8	*	*M9/8	*
8AA-X~	.	(4Fn	.	(>4c	.	(4e-X	.	(8b	.
4BBn	.	.	.	.	.	.	.	[4g	.
.	.	8E	.	8A	.	8f#X	.	.	.
=:	=:	=-	=-	=-	=-	=-	=-	=-	=-
4BB-X	.	[4.F	.	2.c)	.	2.e-)	.	8gL])	.
.	.	.	.	.	.	.	.	(>8b	.
8AAn)	.	.	.	.	.	.	.	8cc#XJ	.
=:	=:	=-	=-	=-	=-	=-	=-	=-	=-
8r	.	8FL]	.	.	.	.	.	8ddL	.
8r	.	8A-X	.	.	.	.	.	8een	.
(8GG	.	8B-XJ)	.	.	.	.	.	8ff#XJ)	.
=18	=18	=18	=18	=18	=18	=18	=18	=18	=18
*M12/8	*	*M12/8	*	*M12/8	*	*M12/8	*	*M12/8	*
8AA-X~L	.	([4.F	.	(8c	.	(>4d	.	[4.gg	.
8BBn	.	.	.	4A	.	.	.	.	.
8CJ	.	.	.	.	.	8f#X	.	.	.
=:	=:	=-	=-	=-	=-	=-	=-	=-	=-
8D-X	.	8FL]	.	[4.e-X	.	4.a	.	8ggL]	.
4BB-X	.	8A-X	.	.	.	.	.	(8b	.
.	.	8G-XJ)	.	.	.	.	.	8ddJ	.
=:	=:	=-	=-	=-	=-	=-	=-	=-	=-
4AAn	.	([2.F	.	2.e-_	.	4a#X	.	8eeL	.
.	.	.	.	.	.	.	.	8ff#X	.
8AA-X)	.	.	.	.	.	8b	.	8ggJ)	.
=:	=:	=-	=-	=-	=-	=-	=-	=-	=-
8r	.	.	.	.	.	4cc#X)	.	[4.aa	.
(8BBnL	.	.	.	.	.	.	.	.	.
8DnJ	.	.	.	.	.	(8a#X	.	.	.
!!linebreak:original
=19	=19	=19	=19	=19	=19	=19	=19	=19	=19
*M8/8	*	*M8/8	*	*M8/8	*	*M8/8	*	*M8/8	*
8C#X~L	.	4.F_	.	8e-L])	.	8b	.	4.aa]	.
8Cn	.	.	.	(8B	.	4g)	.	.	.
8BB-XJ	.	.	.	8c#XJ	.	.	.	.	.
=:	=:	=-	=-	=-	=-	=-	=-	=-	=-
8BBnL	.	8FL]	.	8dL	.	(>8g#XL	.	(8eeL	.
8AAnJ)	.	8Gn	.	8en	.	8a#X	.	8ff#X	.
8r	.	8AnJ)	.	8fJ	.	8bJ	.	8gg#XJ	.
=:	=:	=-	=-	=-	=-	=-	=-	=-	=-
(8BB-XL	.	([4F#X	.	[4e-X	.	8ccnL	.	[4aa	.
8D-XJ	.	.	.	.	.	8ffnJ)	.	.	.
!!LO:REH:t=20
=20	=20	=20	=20	=20	=20	=20	=20	=20	=20
*M7/8	*	*M7/8	*	*M7/8	*	*M7/8	*	*M7/8	*
4C~	.	4.F#]	.	8e-L]	.	([2dd	.	4.aa]	.
.	.	.	.	8a-X)J	.	.	.	.	.
8BBnL	.	.	.	[4f	.	.	.	.	.
8AAJ	.	8c	.	.	.	.	.	8bb-X	.
=:	=:	=-	=-	=-	=-	=-	=-	=-	=-
8BB-X~	.	8B	.	4.f_	.	4dd]	.	[4.aa	.
4AA-X)	.	4e)	.	.	.	.	.	.	.
.	.	.	.	.	.	8b)	.	.	.
=21	=21	=21	=21	=21	=21	=21	=21	=21	=21
*M10/8	*	*M10/8	*	*M10/8	*	*M10/8	*	*M10/8	*
[1GG	.	[4.c#X	.	4.f_	.	(>4cc	.	8aaL])	.
.	.	.	.	.	.	.	.	(8ee	.
.	.	.	.	.	.	8a	.	8ff#X	.
.	.	4c#]	.	4f_	.	8b-XL	.	8cc	.
.	.	.	.	.	.	8g#XJ)	.	8eeJ)	.
.	.	(8cnL	.	8fL]	.	[4.f#X	.	(>[4.a	.
.	.	8B	.	(8d	.	.	.	.	.
.	.	8c#X	.	8e	.	.	.	.	.
4GG_	.	8G#X	.	8B	.	4f#_	.	4a_	.
.	.	8FnJ)	.	8G#XJ)	.	.	.	.	.
!!pagebreak:original
=22	=22	=22	=22	=22	=22	=22	=22	=22	=22
*M8/8	*	*M8/8	*	*M8/8	*	*M8/8	*	*M8/8	*
8GGL]	.	4.E	.	[2c#X	.	2..f#X]	.	1a_	.
(8C	.	.	.	.	.	.	.	.	.
8BB-X	.	.	.	.	.	.	.	.	.
[8FFJ	.	(8Gn	.	.	.	.	.	.	.
2FF_	.	8D	.	8c#]	.	.	.	.	.
.	.	4D-X	.	(8eL	.	.	.	.	.
.	.	.	.	8B	.	.	.	.	.
.	.	[8C	.	[8G#XJ	.	(8a	.	.	.
=23	=23	=23	=23	=23	=23	=23	=23	=23	=23
*M5/8	*	*M5/8	*	*M5/8	*	*M5/8	*	*M5/8	*
4.FF])	.	4C])	.	8G#L]	.	4e	.	8aL]	.
.	.	.	.	16GnL	.	.	.	8b-X)	.
.	.	.	.	16AJJ)	.	.	.	.	.
.	.	4r	.	([4.A#X	.	[4.c#X	.	(8dd	.
(16DD#XLL	.	.	.	.	.	.	.	>8a	.
16EEJ	.	.	.	.	.	.	.	.	.
[8FFJ	.	(8c~	.	.	.	.	.	[8f#XJ	.
=24	=24	=24	=24	=24	=24	=24	=24	=24	=24
*M6/8	*	*M6/8	*	*M6/8	*	*M6/8	*	*M6/8	*
4.FF_	.	8G	.	4A#]	.	4c#]	.	4f#]	.
.	.	4E	.	.	.	.	.	.	.
.	.	.	.	8G#X	.	8d)	.	8b-X)	.
4FF])	.	4E-X)	.	16GnLL	.	(8f#Xi	.	(8ddLi	.
.	.	.	.	16AnJJ)	.	.	.	.	.
.	.	.	.	([4A#Xi	.	[4c#X	.	8a	.
(16DD#XLLi	.	[8c~	.	.	.	.	.	[8f#XJ	.
16EEJJ	.	.	.	.	.	.	.	.	.
=	=	=	=	=	=	=	=	=	=
*-	*-	*-	*-	*-	*-	*-	*-	*-	*-
!!!system-decoration: [(s1,s2,s3,s4,s5)]
!!!RDF**kern: > = above
!!!RDF**kern: < = below
!!!EED: Daniel Wright
!!!EEV: 2021/07/14
!!!EED2: Jason Lee
!!!EEV2: 2022/01/30
!!!RDF**kern: i = marked note, color="hotpink", text="extra("
!!!RDF**kern: j = marked note, color="magenta", text="extra)"
